X:23
T: Zwei Wasser. (Schwimmersage)
N: A0024A
O: Europa, Mitteleuropa, Deutschland
N: Mel. bei Joh. Ott, 1534 No. 37. Diskant. Conform bei Ott
N: III. 1544 No. 15 und Pet. Schoeffer II No. 9.
R: Romanze, Ballade, Lied
M: 3/1
L: 1/2
K: G
G2 | G4_B2 | A4G2 | A3_Bc2 | d4
d2 | c4A2 | _B2G4 | =F6 | z4
=F2 | A4_B2 | c4_B2 | G3A_B2 | A4
G2 | =F2D4 | G4F2 | G4

@@@ Tune index: 23
